X: 6422
T: Castle, The
R: jig
M: 6/8
K: Dminor
f3 edc|dcA GEC|D3A3|GAc d2e|
f3edc|dcA GFC|D2D A2A|GECD3:|
|:FED d3|edc AGE|CEG c3|CEG FED|
FEF GFG|AGA cde|dcA GEC|A,B,C D3:|

